!!!COM: Schiørring, Niels
!!!CDT: 1743-1798
!!!OPR@@DA: Choral-Bog
!!!ONM: 5
!!!OTL@@DA: Af Høyheden oprunden er
**kern	**fb	**kern	**kern	**kern	**kern	**kern	**kern	**kern
*part6	*part6	*part6	*part5	*part5	*part4	*part3	*part2	*part1
*staff8	*	*staff7	*staff6	*staff5	*staff4	*staff3	*staff2	*staff1
*clefF4	*	*clefC1	*clefF4	*clefC1	*clefF4	*clefC4	*clefC3	*clefC1
*mclefF4	*	*mclefG2	*mclefF4	*mclefG2	*mclefF4	*mclefGv2	*mclefG2	*mclefG2
*k[f#c#]	*	*k[f#c#]	*k[f#c#]	*k[f#c#]	*k[f#c#]	*k[f#c#]	*k[f#c#]	*k[f#c#]
*D:	*	*D:	*D:	*D:	*D:	*D:	*D:	*D:
*M4/4	*	*M4/4	*M4/4	*M4/4	*M4/4	*M4/4	*M4/4	*M4/4
*met(c)	*	*met(c)	*met(c)	*met(c)	*met(c)	*met(c)	*met(c)	*met(c)
*MM180	*	*MM180	*MM180	*MM180	*MM180	*MM180	*MM180	*MM180
*	*	*	*^	*^	*	*	*	*
2D	.	2d	2F#	2D	2d	2A	2D	2F#	2d	2d
=1	=1	=1	=1	=1	=1	=1	=1	=1	=1	=1
2C#	6	2a	1A	2C#	2a	2e	2C#	2A	2e	2a
2AA	6	2f#	.	2AA	2f#	2c#	2AA	2A	2c#	2f#
=2	=2	=2	=2	=2	=2	=2	=2	=2	=2	=2
2BB	.	2d	2F#	2BB	2d	2d	2BB	2F#	2d	2d
2C#	6	2a	[2A	2C#	2a	2e	2C#	[2A	2e	2a
=3	=3	=3	=3	=3	=3	=3	=3	=3	=3	=3
2D	6 5	2b	2A]	2D	2b	2f#	2D	2A]	2f#	2b
2E	#	2b	2G#X	2E	2b	2e	2E	2G#X	(4e	2b
.	.	.	.	.	.	.	.	.	4d)	.
=4	=4	=4	=4	=4	=4	=4	=4	=4	=4	=4
*	*	*	*	*	*	*^	*	*	*	*
2AA	.	2a	2A	2AA	2a	2c#	2e/	2AA	2A	2c#	2a
*	*	*	*	*	*	*v	*v	*	*	*	*
2F#	6	2a	2d	2F#	2a	2f#	2F#	2d	2d	2a
=5	=5	=5	=5	=5	=5	=5	=5	=5	=5	=5
2Fn	2	2b	2d	2Fn	2b	1g	2Fn	2d	2g	2b
2E	6	2cc#	2G	2E	2cc#	.	2E	2G	2g	2cc#
=6	=6	=6	=6	=6	=6	=6	=6	=6	=6	=6
2D	.	2dd	2A	2D	2dd	2f#Xi	2D	2A	2f#	2dd
2AA	.	2cc#	[2A	2AA	2cc#	2e	2AA	2e	2a	2cc#
=7	=7	=7	=7	=7	=7	=7	=7	=7	=7	=7
2D	6 5	2b	2A]	2D	2b	2f#	2D	2f#	2a	2b
2E	#	2b	2G#X	2E	2b	2e	2E	(4e	2g#X	2b
.	.	.	.	.	.	.	.	4d)	.	.
=8	=8	=8	=8	=8	=8	=8	=8	=8	=8	=8
*	*	*	*	*	*	*^	*	*	*	*
2AA	.	2a	2A	2AA	2a	2c#	2e/	2AA	2c#	2a	2a
*	*	*	*	*	*	*v	*v	*	*	*	*
4BB	.	2f#	4ryy	4BB	2d	2d	(4BB	2d	2d	2f#
4AA	.	.	4ryy	4AA	.	.	4AA)	.	.	.
=9	=9	=9	=9	=9	=9	=9	=9	=9	=9	=9
2GG	8	2b	1ryy	2GG	2.d	4g	2GG	[2d	(4g	2b
.	7	.	.	.	.	4f#	.	.	4f#)	.
2AA	4	2a	.	2AA	.	2e	2AA	(4d]	2e	2a
.	3	.	.	.	4c#	.	.	4c#)	.	.
=10	=10	=10	=10	=10	=10	=10	=10	=10	=10	=10
4BB	6	2g	4B	4BB	2g	4d	(4BB	(4B	(4d	2g
4C#	5	.	4A	4C#	.	4e	4C#)	4A)	4e)	.
2D	.	2f#	2A	2D	2f#	[2d	2D	2A	[2d	2f#
=11	=11	=11	=11	=11	=11	=11	=11	=11	=11	=11
2GG	6 5	1e	2ryy	2GG	2B	2d]	(2GG	(2B	(2d]	1e
2AA	8	.	4A	2AA	4ryy	2c#	2AA)	4A	2c#)	.
.	7	.	4G	.	4ryy	.	.	4G)	.	.
=12	=12	=12	=12	=12	=12	=12	=12	=12	=12	=12
2D	.	2d	2F#	2D	2d	2A	2D	2F#	2d	2d
2r	.	2r	2r	2r	2r	2r	2r	2r	2r	2r
=13:|!	=13:|!	=13:|!	=13:|!	=13:|!	=13:|!	=13:|!	=13:|!	=13:|!	=13:|!	=13:|!
2C#	6	1a	1A	2C#	1a	2e	(2C#	(2A	1e	1a
2AA	.	.	.	2AA	.	2c#	2AA)	2c#)	.	.
=14	=14	=14	=14	=14	=14	=14	=14	=14	=14	=14
1D	.	1f#	1A	1D	1f#	1d	1D	1d	1d	1f#
=15	=15	=15	=15	=15	=15	=15	=15	=15	=15	=15
*	*	*	*	*	*	*	*^	*	*	*
2FF#	6	1a	2D	2FF#	1a	2.d	(2F#	2FF#	(2.d	(2d	1a
2AA	4	.	2E	2AA	.	.	2A)	2AA	.	2e)	.
.	3	.	.	.	.	4c#	.	.	4c#)	.	.
=16	=16	=16	=16	=16	=16	=16	=16	=16	=16	=16	=16
1BB	.	1f#	1D	1BB	1f#	1d	1B	1BB	1d	1d	1f#
*	*	*	*	*	*	*	*v	*v	*	*	*
=17	=17	=17	=17	=17	=17	=17	=17	=17	=17	=17
2D	.	2f#	2A	2D	2f#	2d	2D	2A	2d	2f#
2F#	6	2f#	2A	2F#	2f#	[2d	2F#	2A	[2d	2f#
=18	=18	=18	=18	=18	=18	=18	=18	=18	=18	=18
2G	6 5	2e	2B	2G	2e	2d]	2G	2B	2d]	2e
2A	.	2e	2A	2A	2e	2c#	2A	2A	2c#	2e
=19	=19	=19	=19	=19	=19	=19	=19	=19	=19	=19
2D	.	2f#	2A	2D	2f#	2d	2D	2A	2d	2f#
2BB	.	2f#	2ryy	2BB	[2B	[2d	2BB	[2B	[2d	2f#
=20	=20	=20	=20	=20	=20	=20	=20	=20	=20	=20
2GG	6 5	2e	1ryy	2GG	2B]	2d]	2GG	2B]	2d]	2e
2AA	.	2e	.	2AA	2A	2c#	2AA	2A	2c#	2e
=21	=21	=21	=21	=21	=21	=21	=21	=21	=21	=21
2D	.	2f#	1ryy	2D	2A	2d	2D	2A	2d	2f#
2GG#X	7 5	2f#	.	2GG#X	2B	[2d	2GG#X	2B	[2d	2f#
=22	=22	=22	=22	=22	=22	=22	=22	=22	=22	=22
1AA	5 4	1e	4E	1AA	1e	2d]	1AA	(4E	(2d]	1e
.	6	.	4F#	.	.	.	.	4F#	.	.
.	7 3	.	2Gni	.	.	2c#	.	2G)	2c#)	.
=23	=23	=23	=23	=23	=23	=23	=23	=23	=23	=23
1D	.	1d	1F#	1D	1d	1A	1D	1F#	1d	1d
=24	=24	=24	=24	=24	=24	=24	=24	=24	=24	=24
4BB	.	2dd	4F#	4BB	2dd	[1f#	(4BB	2F#	(4f#	2dd
4D	.	.	2B	4D	.	.	4D)	.	2b)	.
4F#	4	2cc#	.	4F#	2cc#	.	(4F#	[2f#	.	2cc#
4E	2	.	[4A	4E	.	.	4E)	.	[4a	.
=25	=25	=25	=25	=25	=25	=25	=25	=25	=25	=25
4D#X	5	2b	4A]	4D#X	2b	4f#]	(4D#X	(4f#]	(4a]	2b
4E	.	.	2G	4E	.	2e	4E)	2e)	2g)	.
4C#	5	2a	.	4C#	2a	.	(4C#	.	.	2a
4Dn	.	.	[4F#	4Dn	.	4dni	4Dn)	4d	[4f#	.
=26	=26	=26	=26	=26	=26	=26	=26	=26	=26	=26
4BB	6 5	2g	4F#]	4BB	2g	4d	(4BB	4d	4f#]	2g
4C#	5	.	2E	4C#	.	4e	4C#)	4e	2e	.
4D	9	2f#	.	4D	2f#	4A	(4D	4A	.	2f#
4BB	3	.	[4D	4BB	.	4B	4BB)	4B	4d	.
=27	=27	=27	=27	=27	=27	=27	=27	=27	=27	=27
2GG	6 5	1e	4D]	2GG	1e	2B	(2GG	(2B	(2d	1e
.	.	.	8C#L	.	.	.	.	.	.	.
.	.	.	8BBJ	.	.	.	.	.	.	.
2AA	.	.	4C#	2AA	.	2A	2AA)	4A	2c#)	.
.	.	.	8DL	.	.	.	.	4G)	.	.
.	.	.	8EJ	.	.	.	.	.	.	.
=28	=28	=28	=28	=28	=28	=28	=28	=28	=28	=28
2D	.	2d	2F#	2D	2d	2A	2D	2F#	2d	2d
*	*	*	*v	*v	*	*	*	*	*	*
*	*	*	*	*v	*v	*	*	*	*
==	==	==	==	==	==	==	==	==
*-	*-	*-	*-	*-	*-	*-	*-	*-
!!!system-decoration: {(s1,s2,s3,s4)}{(s5,s6)}{(s7,s8)}
!!!RDF**kern: i = editorial accidental
!!!RDF**kern: > = above
!!!RDF**kern: < = below
!!!AGN: chorale
!!!EED: Derek Remeš
!!!EED2: Victor Phan
!!!END: 2023/11/28
!!!ENC: Wolfgang Drescher
!!!EEV: 2023/12/08
!!!title: @{ONM}. @{OTL}